X: 42596
T: Where Lilies Bloom
R: polka
M: 2/4
K: Dmajor
|:DF/A/ BA|d2 dc|BA B>c|BA FA|
DF/A/ BA|d2 dc|BA Bc|1 ed d2:|2 ed de||
|:fg/f/ ef/e/|d2 dc|BA B>c|BA FA|
fg/f/ ef/e/|d2 dc|BA Bc|1 ed de:|2 ed d2||

